X: 2
T: Spancil Hill
R: waltz
M: 3/4
L: 1/8
K: Edor
|: B2 E | B2 B | A2 F | D2 E | F A G | E2 D | E3- | E2 B |B2 e | e2 f | e2 d | B2 c | d2 e | d c B | A3- | A2 B |B2 e | e2 f | e2 d | B2 c | d2 e | d c B | A3- | A d c |B2 E | B2 B | A2 F | D2 E | F A F | E2 D | E3- | E3 :|]|: B4 E2 | B4 B2 | A4 F2 | D4 E2 | F2 A2 G2 | E4 D2 | E6- | E4 B2 |B4 e2 | e4 f2 | e4 d2 | B4 c2 | d4 e2 | d2 c2 B2 | A6- | A4 B2 |B4 e2 | e4 f2 | e4 d2 | B4 c2 | d4 e2 | d2 c2 B2 | A6- | A2 d2 c2 |B4 E2 | B4 B2 | A4 F2 | D4 E2 | F2 A2 F2 | E4 D2 | E6- | E6 :|]


Tune 1559	Setting 14971

